symbolic/64x64/apps/bridge-constructor-portal.svg

<svg xmlns="http://www.w3.org/2000/svg" width="64" height="64" version="1">
 <rect style="opacity:0.2" width="11" height="50" x="49" y="8" rx="2.75" ry="2.778"/>
 <rect style="opacity:0.2" width="11" height="50" x="4" y="8" rx="2.75" ry="2.778"/>
 <path style="fill:#8e8e8e" d="m 9.4999999,12 c -1.3849999,0 -2.5,0.99111 -2.5,2.222223 l 0,35.555554 C 6.9999999,51.00889 8.115,52 9.4999999,52 L 50.749999,52 C 52.135,52 53.25,51.00889 53.25,49.777777 l 0,-35.555554 C 53.25,12.99111 52.135,12 50.749999,12 Z M 49.5,12 C 48.115,12 47,12.99111 47,14.222223 l 0,35.555554 C 47,51.00889 48.115,52 49.5,52 l 4.999999,0 C 55.884999,52 57,51.00889 57,49.777777 L 57,14.222223 C 57,12.99111 55.884999,12 54.499999,12 Z"/>
 <rect style="fill:#ff9205" width="11" height="50" x="4" y="7" rx="2.75" ry="2.778"/>
 <rect style="fill:#00c1ee" width="11" height="50" x="49" y="7" rx="2.75" ry="2.778"/>
 <path style="fill:none;stroke:#3f3f3f;stroke-width:6;stroke-linecap:round;stroke-linejoin:round" d="m 32.000007,21 0,21 m 0,-21 L 15,42 49,42 Z"/>
 <path style="opacity:0.2" d="m 32,16 a 5.9999999,5.9999999 0 0 0 -6,6 5.9999999,5.9999999 0 0 0 6,6 5.9999999,5.9999999 0 0 0 6,-6 5.9999999,5.9999999 0 0 0 -6,-6 z M 15,37 a 5.9999999,5.9999999 0 0 0 -6,6 5.9999999,5.9999999 0 0 0 6,6 5.9999999,5.9999999 0 0 0 6,-6 5.9999999,5.9999999 0 0 0 -6,-6 z m 17,0 a 5.9999999,5.9999999 0 0 0 -6,6 5.9999999,5.9999999 0 0 0 6,6 5.9999999,5.9999999 0 0 0 6,-6 5.9999999,5.9999999 0 0 0 -6,-6 z m 17,0 a 5.9999999,5.9999999 0 0 0 -6,6 5.9999999,5.9999999 0 0 0 6,6 5.9999999,5.9999999 0 0 0 6,-6 5.9999999,5.9999999 0 0 0 -6,-6 z"/>
 <path style="fill:#ffffff" d="M 32 15 A 5.9999999 5.9999999 0 0 0 26 21 A 5.9999999 5.9999999 0 0 0 32 27 A 5.9999999 5.9999999 0 0 0 38 21 A 5.9999999 5.9999999 0 0 0 32 15 z M 15 36 A 5.9999999 5.9999999 0 0 0 9 42 A 5.9999999 5.9999999 0 0 0 15 48 A 5.9999999 5.9999999 0 0 0 21 42 A 5.9999999 5.9999999 0 0 0 15 36 z M 32 36 A 5.9999999 5.9999999 0 0 0 26 42 A 5.9999999 5.9999999 0 0 0 32 48 A 5.9999999 5.9999999 0 0 0 38 42 A 5.9999999 5.9999999 0 0 0 32 36 z M 49 36 A 5.9999999 5.9999999 0 0 0 43 42 A 5.9999999 5.9999999 0 0 0 49 48 A 5.9999999 5.9999999 0 0 0 55 42 A 5.9999999 5.9999999 0 0 0 49 36 z"/>
 <path style="opacity:0.1;fill:#ffffff" d="M 6.75 7 C 5.2265 7 4 8.2384548 4 9.7773438 L 4 10.777344 C 4 9.2384548 5.2265 8 6.75 8 L 12.25 8 C 13.7735 8 15 9.2384548 15 10.777344 L 15 9.7773438 C 15 8.2384548 13.7735 7 12.25 7 L 6.75 7 z"/>
 <path style="opacity:0.1;fill:#ffffff" d="M 51.75 7 C 50.2265 7 49 8.2384548 49 9.7773438 L 49 10.777344 C 49 9.2384548 50.2265 8 51.75 8 L 57.25 8 C 58.7735 8 60 9.2384548 60 10.777344 L 60 9.7773438 C 60 8.2384548 58.7735 7 57.25 7 L 51.75 7 z"/>
</svg>

<svg xmlns="http://www.w3.org/2000/svg" width="64" height="64" version="1"><rect style="opacity:.2" width="11" height="50" x="49" y="8" rx="2.75" ry="2.778"/><rect style="opacity:.2" width="11" height="50" x="4" y="8" rx="2.75" ry="2.778"/><path style="fill:#8e8e8e" d="M9.5 12c-1.385 0-2.5.991-2.5 2.222v35.556C7 51.008 8.115 52 9.5 52h41.25c1.385 0 2.5-.991 2.5-2.222V14.222c0-1.23-1.115-2.222-2.5-2.222zm40 0c-1.385 0-2.5.991-2.5 2.222v35.556C47 51.008 48.115 52 49.5 52h5c1.385 0 2.5-.991 2.5-2.222V14.222C57 12.992 55.885 12 54.5 12z"/><rect style="fill:#ff9205" width="11" height="50" x="4" y="7" rx="2.75" ry="2.778"/><rect style="fill:#00c1ee" width="11" height="50" x="49" y="7" rx="2.75" ry="2.778"/><path style="fill:none;stroke:#3f3f3f;stroke-width:6;stroke-linecap:round;stroke-linejoin:round" d="M32 21v21m0-21L15 42h34z"/><path style="opacity:.2" d="M32 16a6 6 0 0 0-6 6 6 6 0 0 0 6 6 6 6 0 0 0 6-6 6 6 0 0 0-6-6zM15 37a6 6 0 0 0-6 6 6 6 0 0 0 6 6 6 6 0 0 0 6-6 6 6 0 0 0-6-6zm17 0a6 6 0 0 0-6 6 6 6 0 0 0 6 6 6 6 0 0 0 6-6 6 6 0 0 0-6-6zm17 0a6 6 0 0 0-6 6 6 6 0 0 0 6 6 6 6 0 0 0 6-6 6 6 0 0 0-6-6z"/><path style="fill:#fff" d="M32 15a6 6 0 0 0-6 6 6 6 0 0 0 6 6 6 6 0 0 0 6-6 6 6 0 0 0-6-6zM15 36a6 6 0 0 0-6 6 6 6 0 0 0 6 6 6 6 0 0 0 6-6 6 6 0 0 0-6-6zm17 0a6 6 0 0 0-6 6 6 6 0 0 0 6 6 6 6 0 0 0 6-6 6 6 0 0 0-6-6zm17 0a6 6 0 0 0-6 6 6 6 0 0 0 6 6 6 6 0 0 0 6-6 6 6 0 0 0-6-6z"/><path style="opacity:.1;fill:#fff" d="M6.75 7A2.758 2.758 0 0 0 4 9.777v1A2.758 2.758 0 0 1 6.75 8h5.5A2.758 2.758 0 0 1 15 10.777v-1A2.758 2.758 0 0 0 12.25 7h-5.5zM51.75 7A2.758 2.758 0 0 0 49 9.777v1A2.758 2.758 0 0 1 51.75 8h5.5A2.758 2.758 0 0 1 60 10.777v-1A2.758 2.758 0 0 0 57.25 7h-5.5z"/></svg>
